flaticon/medical/gum.svg

<svg xmlns="http://www.w3.org/2000/svg" width="32" height="32" viewBox="0 0 24 24">
    <path d="M 22.394531 7.230469 C 22.394531 6.214844 22.292969 5.21875 22.039062 4.261719 C 21.851562 3.550781 21.449219 2.859375 20.878906 2.226562 L 20.878906 2.222656 L 20.8125 2.152344 C 20.402344 1.710938 19.910156 1.300781 19.34375 0.933594 C 19.324219 0.921875 19.300781 0.910156 19.28125 0.898438 C 19.277344 0.894531 19.277344 0.890625 19.273438 0.890625 C 19.238281 0.871094 19.203125 0.851562 19.171875 0.832031 C 19.097656 0.789062 19.023438 0.746094 18.949219 0.707031 C 18.929688 0.695312 18.910156 0.683594 18.890625 0.675781 C 18.886719 0.671875 18.878906 0.671875 18.875 0.667969 C 18.378906 0.414062 17.835938 0.234375 17.265625 0.125 C 17.257812 0.121094 17.257812 0.121094 17.25 0.117188 C 17.234375 0.113281 17.214844 0.113281 17.195312 0.109375 C 17.113281 0.09375 17.027344 0.0820312 16.945312 0.0703125 C 16.902344 0.0664062 16.863281 0.0585938 16.824219 0.0507812 C 16.820312 0.0507812 16.820312 0.0546875 16.816406 0.0546875 C 15.605469 -0.09375 14.300781 0.0703125 13.0625 0.554688 C 13.058594 0.558594 13.054688 0.554688 13.050781 0.558594 L 12.957031 0.597656 C 12.945312 0.601562 12.933594 0.605469 12.925781 0.609375 L 12.847656 0.640625 C 12.808594 0.65625 12.773438 0.675781 12.734375 0.6875 C 12.71875 0.691406 12.707031 0.699219 12.691406 0.703125 C 12.527344 0.761719 12.394531 0.8125 12.289062 0.851562 C 11.933594 0.988281 11.914062 0.992188 11.375 0.835938 L 11.347656 0.828125 C 11.335938 0.824219 11.328125 0.820312 11.3125 0.816406 C 10.085938 0.453125 8.625 0.0976562 7.273438 0.128906 C 7.265625 0.128906 7.257812 0.128906 7.25 0.128906 C 7.128906 0.132812 7.007812 0.140625 6.890625 0.148438 C 6.875 0.148438 6.859375 0.148438 6.84375 0.152344 C 6.839844 0.152344 6.835938 0.152344 6.835938 0.152344 C 6.433594 0.191406 6.042969 0.265625 5.679688 0.394531 C 5.511719 0.457031 5.34375 0.527344 5.179688 0.609375 C 5.167969 0.613281 5.15625 0.609375 5.148438 0.617188 C 5.015625 0.679688 4.886719 0.75 4.761719 0.824219 C 4.742188 0.835938 4.730469 0.851562 4.714844 0.863281 C 4.269531 1.140625 3.851562 1.492188 3.480469 1.917969 C 3.460938 1.933594 3.441406 1.945312 3.425781 1.960938 L 3.300781 2.109375 L 3.300781 2.128906 C 2.347656 3.324219 1.75 5.035156 1.890625 7.203125 C 0.847656 7.210938 0 8.0625 0 9.105469 L 0 22.09375 C 0 23.144531 0.855469 24 1.90625 24 L 22.09375 24 C 23.144531 24 24 23.144531 24 22.09375 L 24 9.105469 C 24 8.160156 23.304688 7.378906 22.394531 7.230469 Z M 3.644531 2.996094 C 3.671875 3 3.699219 3.011719 3.726562 3.011719 C 3.738281 3.011719 3.75 3.007812 3.761719 3.007812 C 3.984375 2.988281 4.144531 2.792969 4.125 2.574219 C 4.121094 2.511719 4.117188 2.449219 4.113281 2.382812 C 4.457031 1.996094 4.867188 1.667969 5.347656 1.414062 C 5.394531 1.390625 5.433594 1.367188 5.480469 1.34375 C 5.628906 1.273438 5.78125 1.207031 5.945312 1.148438 C 6.269531 1.035156 6.621094 0.972656 6.996094 0.945312 C 7.039062 0.941406 7.085938 0.9375 7.132812 0.9375 C 7.230469 0.929688 7.328125 0.925781 7.429688 0.925781 C 8.589844 0.925781 9.863281 1.230469 10.878906 1.523438 L 11.152344 1.601562 C 11.15625 1.601562 11.15625 1.601562 11.160156 1.605469 C 11.886719 1.816406 12.027344 1.8125 12.578125 1.597656 C 12.6875 1.554688 12.824219 1.503906 12.996094 1.441406 C 13.035156 1.429688 13.070312 1.414062 13.109375 1.398438 C 13.128906 1.390625 13.144531 1.382812 13.164062 1.375 L 13.25 1.339844 C 14.449219 0.847656 15.714844 0.695312 16.867188 0.867188 C 16.921875 0.875 16.976562 0.882812 17.03125 0.890625 C 17.71875 1.015625 18.355469 1.25 18.910156 1.605469 C 19.339844 1.882812 19.71875 2.1875 20.046875 2.507812 C 20.046875 2.507812 20.046875 2.511719 20.050781 2.515625 C 20.054688 2.519531 20.058594 2.523438 20.058594 2.523438 C 20.058594 2.53125 20.058594 2.535156 20.058594 2.539062 C 20.039062 2.757812 20.203125 2.953125 20.425781 2.972656 C 20.4375 2.972656 20.445312 2.972656 20.457031 2.972656 C 20.460938 2.972656 20.464844 2.96875 20.472656 2.96875 C 20.859375 3.445312 21.128906 3.953125 21.265625 4.464844 C 22.097656 7.613281 21.199219 11.355469 20.402344 14.660156 C 20.257812 15.269531 20.113281 15.863281 19.984375 16.4375 L 19.871094 16.960938 C 19.558594 18.382812 19.234375 19.851562 18.511719 21.117188 C 18.269531 21.542969 18.019531 21.785156 17.851562 21.769531 C 17.667969 21.753906 17.164062 21.460938 16.425781 19.1875 C 16.316406 18.859375 16.226562 18.507812 16.128906 18.136719 C 15.769531 16.765625 15.367188 15.214844 13.980469 14.390625 C 12.457031 13.480469 10.734375 14.046875 9.488281 15.867188 C 8.796875 16.878906 8.414062 18.007812 8.039062 19.101562 C 7.894531 19.523438 7.746094 19.960938 7.582031 20.382812 C 7.328125 21.039062 7.085938 21.566406 6.578125 21.828125 C 6.125 21.714844 5.640625 20.535156 5.453125 20.074219 L 5.402344 19.957031 C 4.046875 16.683594 3.511719 13.003906 2.996094 9.449219 C 2.921875 8.945312 2.847656 8.445312 2.773438 7.949219 C 2.753906 7.820312 2.742188 7.691406 2.726562 7.558594 L 2.707031 7.375 C 2.582031 5.847656 2.855469 4.234375 3.644531 2.996094 Z M 23.199219 22.09375 C 23.199219 22.703125 22.703125 23.199219 22.09375 23.199219 L 1.90625 23.199219 C 1.296875 23.199219 0.800781 22.703125 0.800781 22.09375 L 0.800781 9.105469 C 0.800781 8.496094 1.296875 8 1.90625 8 L 1.972656 8 C 1.976562 8.023438 1.980469 8.046875 1.984375 8.070312 C 2.058594 8.566406 2.128906 9.0625 2.203125 9.566406 C 2.726562 13.171875 3.269531 16.902344 4.664062 20.265625 L 4.710938 20.382812 C 5.058594 21.226562 5.636719 22.636719 6.648438 22.636719 L 6.726562 22.636719 L 6.804688 22.605469 C 7.730469 22.214844 8.074219 21.324219 8.328125 20.675781 C 8.5 20.238281 8.652344 19.792969 8.796875 19.359375 C 9.167969 18.273438 9.519531 17.242188 10.152344 16.320312 C 10.628906 15.617188 11.921875 14.09375 13.574219 15.078125 C 14.675781 15.734375 15.019531 17.058594 15.355469 18.339844 C 15.449219 18.707031 15.550781 19.085938 15.664062 19.4375 C 16.148438 20.929688 16.777344 22.464844 17.769531 22.570312 C 18.289062 22.621094 18.777344 22.269531 19.207031 21.515625 C 19.988281 20.144531 20.324219 18.613281 20.652344 17.132812 L 20.765625 16.613281 C 20.894531 16.042969 21.035156 15.453125 21.179688 14.847656 C 21.703125 12.679688 22.265625 10.328125 22.378906 8.042969 C 22.847656 8.167969 23.199219 8.597656 23.199219 9.105469 Z M 23.199219 22.09375"/>
    <path d="M21.691406 20C21.691406 20.222656 21.511719 20.398438 21.292969 20.398438 21.070312 20.398438 20.890625 20.222656 20.890625 20 20.890625 19.777344 21.070312 19.601562 21.292969 19.601562 21.511719 19.601562 21.691406 19.777344 21.691406 20zM22.890625 16C22.890625 16.222656 22.714844 16.398438 22.492188 16.398438 22.273438 16.398438 22.09375 16.222656 22.09375 16 22.09375 15.777344 22.273438 15.601562 22.492188 15.601562 22.714844 15.601562 22.890625 15.777344 22.890625 16zM14.492188 17.601562C14.492188 17.820312 14.3125 18 14.09375 18 13.871094 18 13.691406 17.820312 13.691406 17.601562 13.691406 17.378906 13.871094 17.199219 14.09375 17.199219 14.3125 17.199219 14.492188 17.378906 14.492188 17.601562zM15.691406 22C15.691406 22.222656 15.511719 22.398438 15.292969 22.398438 15.070312 22.398438 14.890625 22.222656 14.890625 22 14.890625 21.777344 15.070312 21.601562 15.292969 21.601562 15.511719 21.601562 15.691406 21.777344 15.691406 22zM2.890625 20.800781C2.890625 21.019531 2.714844 21.199219 2.492188 21.199219 2.273438 21.199219 2.09375 21.019531 2.09375 20.800781 2.09375 20.578125 2.273438 20.398438 2.492188 20.398438 2.714844 20.398438 2.890625 20.578125 2.890625 20.800781zM2.09375 14.398438C2.09375 14.621094 1.914062 14.800781 1.691406 14.800781 1.472656 14.800781 1.292969 14.621094 1.292969 14.398438 1.292969 14.179688 1.472656 14 1.691406 14 1.914062 14 2.09375 14.179688 2.09375 14.398438zM11.09375 19.199219C10.101562 19.199219 9.292969 20.007812 9.292969 21 9.292969 21.992188 10.101562 22.800781 11.09375 22.800781 12.085938 22.800781 12.890625 21.992188 12.890625 21 12.890625 20.007812 12.085938 19.199219 11.09375 19.199219zM11.09375 22C10.542969 22 10.09375 21.550781 10.09375 21 10.09375 20.449219 10.542969 20 11.09375 20 11.644531 20 12.09375 20.449219 12.09375 21 12.09375 21.550781 11.644531 22 11.09375 22zM13.910156 9.820312C13.933594 9.820312 13.960938 9.820312 13.988281 9.8125 14.125 9.785156 14.265625 9.753906 14.402344 9.722656 14.617188 9.667969 14.746094 9.453125 14.691406 9.238281 14.640625 9.023438 14.421875 8.894531 14.207031 8.945312 14.085938 8.976562 13.957031 9.003906 13.832031 9.03125 13.613281 9.074219 13.472656 9.285156 13.515625 9.5 13.554688 9.691406 13.722656 9.820312 13.910156 9.820312zM15.835938 9.203125C15.890625 9.203125 15.945312 9.191406 16 9.167969 16.128906 9.109375 16.257812 9.046875 16.382812 8.984375 16.578125 8.882812 16.65625 8.644531 16.558594 8.445312 16.457031 8.25 16.214844 8.171875 16.019531 8.273438 15.90625 8.328125 15.789062 8.386719 15.671875 8.4375 15.46875 8.53125 15.378906 8.765625 15.472656 8.96875 15.539062 9.117188 15.683594 9.203125 15.835938 9.203125zM19.84375 4.9375C19.890625 4.957031 19.941406 4.964844 19.992188 4.964844 20.148438 4.964844 20.300781 4.871094 20.363281 4.710938 20.414062 4.582031 20.464844 4.445312 20.507812 4.308594 20.578125 4.101562 20.464844 3.875 20.253906 3.804688 20.042969 3.738281 19.820312 3.847656 19.75 4.058594 19.707031 4.179688 19.664062 4.300781 19.617188 4.417969 19.539062 4.625 19.636719 4.855469 19.84375 4.9375zM18.992188 6.722656C19.113281 6.722656 19.230469 6.667969 19.3125 6.566406 19.398438 6.453125 19.480469 6.335938 19.5625 6.21875 19.6875 6.035156 19.640625 5.789062 19.457031 5.664062 19.273438 5.539062 19.023438 5.585938 18.902344 5.769531 18.828125 5.875 18.753906 5.976562 18.675781 6.078125 18.539062 6.253906 18.574219 6.503906 18.75 6.640625 18.824219 6.695312 18.90625 6.722656 18.992188 6.722656zM17.566406 8.160156C17.652344 8.160156 17.742188 8.128906 17.8125 8.074219 17.925781 7.984375 18.035156 7.894531 18.144531 7.804688 18.308594 7.660156 18.328125 7.40625 18.183594 7.238281 18.039062 7.070312 17.785156 7.054688 17.621094 7.199219 17.523438 7.28125 17.421875 7.363281 17.320312 7.441406 17.148438 7.578125 17.117188 7.832031 17.253906 8.003906 17.332031 8.105469 17.449219 8.160156 17.566406 8.160156zM11.882812 9.996094C11.953125 10 12.023438 10 12.09375 10 12.164062 10 12.234375 10 12.308594 9.996094 12.527344 9.992188 12.703125 9.808594 12.699219 9.589844 12.691406 9.367188 12.507812 9.191406 12.289062 9.199219 12.160156 9.203125 12.03125 9.203125 11.902344 9.199219 11.683594 9.191406 11.5 9.367188 11.492188 9.589844 11.488281 9.808594 11.664062 9.992188 11.882812 9.996094zM4.628906 6.226562C4.707031 6.34375 4.792969 6.460938 4.878906 6.574219 4.957031 6.675781 5.074219 6.730469 5.195312 6.730469 5.28125 6.730469 5.367188 6.703125 5.4375 6.648438 5.613281 6.511719 5.648438 6.261719 5.511719 6.085938 5.4375 5.984375 5.359375 5.882812 5.289062 5.777344 5.164062 5.59375 4.914062 5.546875 4.730469 5.671875 4.550781 5.796875 4.503906 6.046875 4.628906 6.226562zM3.824219 4.722656C3.886719 4.878906 4.039062 4.976562 4.195312 4.976562 4.246094 4.976562 4.296875 4.964844 4.34375 4.945312 4.550781 4.867188 4.648438 4.632812 4.570312 4.429688 4.519531 4.308594 4.476562 4.1875 4.4375 4.066406 4.367188 3.859375 4.140625 3.746094 3.929688 3.8125 3.722656 3.882812 3.609375 4.109375 3.679688 4.320312 3.722656 4.457031 3.773438 4.589844 3.824219 4.722656zM7.808594 8.988281C7.933594 9.050781 8.0625 9.113281 8.191406 9.171875 8.242188 9.195312 8.300781 9.207031 8.355469 9.207031 8.507812 9.207031 8.652344 9.121094 8.71875 8.972656 8.8125 8.769531 8.722656 8.53125 8.519531 8.441406 8.402344 8.390625 8.285156 8.332031 8.171875 8.273438 7.972656 8.171875 7.734375 8.253906 7.632812 8.449219 7.53125 8.648438 7.613281 8.886719 7.808594 8.988281zM9.792969 9.722656C9.925781 9.757812 10.066406 9.789062 10.203125 9.816406 10.230469 9.820312 10.257812 9.824219 10.28125 9.824219 10.46875 9.824219 10.636719 9.691406 10.675781 9.503906 10.71875 9.285156 10.578125 9.074219 10.363281 9.03125 10.234375 9.003906 10.109375 8.976562 9.980469 8.945312 9.769531 8.890625 9.550781 9.023438 9.5 9.238281 9.445312 9.453125 9.578125 9.671875 9.792969 9.722656zM6.375 8.078125C6.449219 8.136719 6.535156 8.164062 6.621094 8.164062 6.742188 8.164062 6.859375 8.109375 6.9375 8.011719 7.074219 7.835938 7.042969 7.585938 6.871094 7.449219 6.765625 7.367188 6.667969 7.289062 6.570312 7.203125 6.402344 7.058594 6.148438 7.078125 6.007812 7.246094 5.863281 7.414062 5.878906 7.664062 6.046875 7.808594 6.15625 7.902344 6.265625 7.992188 6.375 8.078125zM6.375 8.078125"/>
</svg>

<svg xmlns="http://www.w3.org/2000/svg" width="32" height="32" viewBox="0 0 24 24">
    <path d="M22.395 7.23c0-1.015-.102-2.011-.356-2.968-.187-.711-.59-1.403-1.16-2.035v-.004l-.067-.07a7.762 7.762 0 0 0-1.468-1.22L19.28.899c-.004-.003-.004-.007-.008-.007l-.101-.059a6.381 6.381 0 0 0-.281-.156c-.004-.004-.012-.004-.016-.008a6.014 6.014 0 0 0-1.61-.543L17.25.117c-.016-.004-.035-.004-.055-.008-.082-.015-.168-.027-.25-.039a1.12 1.12 0 0 1-.12-.02c-.005 0-.005.005-.009.005-1.21-.149-2.515.015-3.753.5-.004.004-.008 0-.012.004l-.094.039a.27.27 0 0 0-.031.011l-.078.032c-.04.015-.075.035-.114.046-.015.004-.027.012-.043.016-.164.059-.296.11-.402.149-.355.136-.375.14-.914-.016l-.027-.008c-.012-.004-.02-.008-.036-.012C10.087.453 8.626.098 7.274.13H7.25c-.121.004-.242.012-.36.02-.015 0-.03 0-.046.003h-.008c-.402.04-.793.114-1.156.243a5.07 5.07 0 0 0-.5.214c-.012.004-.024 0-.032.008a4.578 4.578 0 0 0-.386.207c-.02.012-.032.028-.047.04A5.484 5.484 0 0 0 3.48 1.917c-.02.016-.039.027-.054.043l-.125.148v.02C2.348 3.324 1.75 5.035 1.89 7.203A1.907 1.907 0 0 0 0 9.105v12.989C0 23.144.855 24 1.906 24h20.188c1.05 0 1.906-.855 1.906-1.906V9.105c0-.945-.695-1.726-1.605-1.875zM3.645 2.996c.027.004.054.016.082.016.011 0 .023-.004.035-.004a.399.399 0 0 0 .363-.434l-.012-.191a4.38 4.38 0 0 1 1.235-.969c.047-.023.086-.047.132-.07.149-.07.301-.137.465-.196a4.077 4.077 0 0 1 1.188-.21C7.23.93 7.328.925 7.43.925c1.16 0 2.433.304 3.449.597l.273.079c.004 0 .004 0 .008.003.727.211.867.208 1.418-.007.11-.043.246-.094.418-.157.04-.011.074-.027.113-.043.02-.007.036-.015.055-.023l.086-.035c1.2-.492 2.465-.645 3.617-.473l.164.024c.688.125 1.324.359 1.88.714.429.278.808.583 1.136.903 0 0 0 .004.004.008l.008.007v.016a.402.402 0 0 0 .367.434h.031c.004 0 .008-.004.016-.004.386.476.656.984.793 1.496.832 3.148-.067 6.89-.864 10.195-.144.61-.289 1.203-.418 1.777l-.113.524c-.312 1.422-.637 2.89-1.36 4.156-.241.426-.491.668-.66.653-.183-.016-.687-.31-1.425-2.582-.11-.329-.2-.68-.297-1.051-.36-1.371-.762-2.922-2.149-3.746-1.523-.91-3.246-.344-4.492 1.476-.691 1.012-1.074 2.14-1.449 3.235-.144.421-.293.859-.457 1.28-.254.657-.496 1.184-1.004 1.446-.453-.113-.937-1.293-1.125-1.754l-.05-.117c-1.356-3.273-1.891-6.953-2.407-10.508-.074-.504-.148-1.004-.223-1.5-.02-.129-.03-.258-.046-.39l-.02-.184c-.125-1.527.148-3.14.938-4.379zm19.554 19.098c0 .61-.496 1.105-1.105 1.105H1.906c-.61 0-1.105-.496-1.105-1.105V9.105C.8 8.496 1.297 8 1.906 8h.067l.011.07c.075.496.145.992.22 1.496.523 3.606 1.066 7.336 2.46 10.7l.047.117c.348.844.926 2.254 1.937 2.254h.079l.078-.032c.925-.39 1.27-1.28 1.523-1.93.172-.437.324-.882.469-1.316.371-1.086.723-2.117 1.355-3.039.477-.703 1.77-2.226 3.422-1.242 1.102.656 1.446 1.98 1.781 3.262.094.367.196.746.31 1.098.483 1.492 1.112 3.027 2.105 3.132.52.051 1.007-.3 1.437-1.054.781-1.371 1.117-2.903 1.445-4.383l.114-.52c.129-.57.27-1.16.414-1.765.523-2.168 1.086-4.52 1.199-6.805.469.125.82.555.82 1.062zm0 0"/>
    <path d="M21.691 20c0 .223-.18.398-.398.398a.398.398 0 1 1 0-.796c.219 0 .398.175.398.398zm0 0M22.89 16a.395.395 0 0 1-.398.398.398.398 0 1 1 0-.796c.223 0 .399.175.399.398zm0 0M14.492 17.602a.4.4 0 1 1-.8-.004.4.4 0 0 1 .8.004zm0 0M15.691 22c0 .223-.18.398-.398.398a.398.398 0 1 1 0-.796c.219 0 .398.175.398.398zm0 0M2.89 20.8a.398.398 0 1 1-.796 0 .398.398 0 0 1 .797 0zm0 0M2.094 14.398a.401.401 0 1 1 0 0zm0 0M11.094 19.2c-.992 0-1.801.808-1.801 1.8s.809 1.8 1.8 1.8a1.8 1.8 0 0 0 0-3.6zm0 2.8c-.551 0-1-.45-1-1s.449-1 1-1c.55 0 1 .45 1 1s-.45 1-1 1zm0 0M13.91 9.82c.024 0 .05 0 .078-.008.137-.027.278-.058.414-.09a.4.4 0 1 0-.195-.777c-.121.032-.25.059-.375.086a.4.4 0 0 0-.316.469.4.4 0 0 0 .394.32zm0 0M15.836 9.203c.055 0 .11-.012.164-.035.129-.059.258-.121.383-.184a.405.405 0 0 0 .176-.539.401.401 0 0 0-.54-.172c-.113.055-.23.114-.347.165a.398.398 0 0 0-.2.53c.067.15.212.235.364.235zm0 0M19.844 4.938a.399.399 0 0 0 .52-.227c.05-.129.1-.266.144-.402a.398.398 0 1 0-.758-.25 9.754 9.754 0 0 1-.133.359.402.402 0 0 0 .227.52zm0 0M18.992 6.723a.41.41 0 0 0 .32-.157c.086-.113.168-.23.25-.347a.397.397 0 0 0-.105-.555.397.397 0 0 0-.555.106 8.948 8.948 0 0 1-.226.308.4.4 0 0 0 .316.645zm0 0M17.566 8.16a.41.41 0 0 0 .247-.086c.113-.09.222-.18.332-.27a.405.405 0 0 0 .039-.566.397.397 0 0 0-.563-.039 9.05 9.05 0 0 1-.3.242.403.403 0 0 0 .245.72zm0 0M11.883 9.996c.07.004.14.004.21.004.071 0 .141 0 .216-.004a.4.4 0 0 0 .39-.406.4.4 0 0 0-.41-.39 6.383 6.383 0 0 1-.387 0 .4.4 0 0 0-.41.39.4.4 0 0 0 .39.406zm0 0M4.629 6.227c.078.117.164.234.25.347a.398.398 0 0 0 .559.074.4.4 0 0 0 .074-.562c-.074-.102-.153-.203-.223-.309a.402.402 0 0 0-.559-.105.4.4 0 0 0-.101.555zm0 0M3.824 4.723a.405.405 0 0 0 .371.254c.051 0 .102-.012.149-.032a.398.398 0 0 0 .226-.515 4.533 4.533 0 0 1-.133-.364.407.407 0 0 0-.507-.253.402.402 0 0 0-.25.507c.043.137.093.27.144.403zm0 0M7.809 8.988c.125.063.253.125.382.184a.4.4 0 1 0 .329-.73 5.692 5.692 0 0 1-.348-.169.401.401 0 0 0-.363.715zm0 0M9.793 9.723c.133.035.273.066.41.093a.405.405 0 0 0 .473-.313.402.402 0 0 0-.313-.472 13.464 13.464 0 0 1-.383-.086.395.395 0 0 0-.48.293.398.398 0 0 0 .293.485zm0 0M6.375 8.078c.074.059.16.086.246.086a.402.402 0 0 0 .25-.715 6.318 6.318 0 0 1-.3-.246.397.397 0 0 0-.563.043.397.397 0 0 0 .039.563c.11.093.219.183.328.27zm0 0"/>
</svg>
